assets/ios/swift/Icons.xcassets/extensions.imageset/extensions.svg

<svg width="24" height="24" viewBox="0 0 24 24" fill="none" xmlns="http://www.w3.org/2000/svg">
<path d="M17.25 11.6721C16.9959 11.6721 16.7749 11.5782 16.5871 11.3904L12.6096 7.41292C12.4218 7.22509 12.3279 7.00412 12.3279 6.75001C12.3279 6.49589 12.4218 6.27492 12.6096 6.08709L16.5871 2.10962C16.7749 1.92179 16.9959 1.82788 17.25 1.82788C17.5041 1.82788 17.7251 1.92179 17.9129 2.10962L21.8904 6.08709C22.0782 6.27492 22.1721 6.49589 22.1721 6.75001C22.1721 7.00412 22.0782 7.22509 21.8904 7.41292L17.9129 11.3904C17.7251 11.5782 17.5041 11.6721 17.25 11.6721ZM19.7249 6.75001L17.25 4.27513L14.7751 6.75001L17.25 9.22488L19.7249 6.75001Z" fill="black"/>
<path d="M4 11C3.71667 11 3.47917 10.9042 3.2875 10.7125C3.09583 10.5208 3 10.2833 3 10V4.00001C3 3.71667 3.09583 3.47917 3.2875 3.28751C3.47917 3.09584 3.71667 3.00001 4 3.00001H10C10.2833 3.00001 10.5208 3.09584 10.7125 3.28751C10.9042 3.47917 11 3.71667 11 4.00001V10C11 10.2833 10.9042 10.5208 10.7125 10.7125C10.5208 10.9042 10.2833 11 10 11H4ZM9 9.00001V5.00001H5V9.00001H9Z" fill="black"/>
<path d="M14 21C13.7167 21 13.4792 20.9042 13.2875 20.7125C13.0958 20.5208 13 20.2833 13 20V14C13 13.7167 13.0958 13.4792 13.2875 13.2875C13.4792 13.0958 13.7167 13 14 13H20C20.2833 13 20.5208 13.0958 20.7125 13.2875C20.9042 13.4792 21 13.7167 21 14V20C21 20.2833 20.9042 20.5208 20.7125 20.7125C20.5208 20.9042 20.2833 21 20 21H14ZM19 19V15H15V19H19Z" fill="black"/>
<path d="M4 21C3.71667 21 3.47917 20.9042 3.2875 20.7125C3.09583 20.5208 3 20.2833 3 20V14C3 13.7167 3.09583 13.4792 3.2875 13.2875C3.47917 13.0958 3.71667 13 4 13H10C10.2833 13 10.5208 13.0958 10.7125 13.2875C10.9042 13.4792 11 13.7167 11 14V20C11 20.2833 10.9042 20.5208 10.7125 20.7125C10.5208 20.9042 10.2833 21 10 21H4ZM9 19V15H5V19H9Z" fill="black"/>
</svg>

<svg xmlns="http://www.w3.org/2000/svg" width="24" height="24" fill="black" viewBox="0 0 24 24">
  <path d="M17.25 11.672a.907.907 0 0 1-.663-.282L12.61 7.413a.907.907 0 0 1-.282-.663c0-.254.094-.475.282-.663l3.977-3.977a.907.907 0 0 1 .663-.282c.254 0 .475.094.663.282l3.977 3.977a.907.907 0 0 1 .282.663.907.907 0 0 1-.282.663l-3.977 3.977a.907.907 0 0 1-.663.282Zm2.475-4.922L17.25 4.275 14.775 6.75l2.475 2.475 2.475-2.475ZM4 11a.967.967 0 0 1-.712-.287A.968.968 0 0 1 3 10V4c0-.283.096-.52.288-.712A.968.968 0 0 1 4 3h6a.97.97 0 0 1 .713.288A.968.968 0 0 1 11 4v6c0 .283-.096.52-.287.713A.968.968 0 0 1 10 11H4Zm5-2V5H5v4h4Zm5 12a.968.968 0 0 1-.713-.288A.968.968 0 0 1 13 20v-6c0-.283.096-.52.287-.713A.968.968 0 0 1 14 13h6a.97.97 0 0 1 .712.287c.192.192.288.43.288.713v6c0 .283-.096.52-.288.712A.968.968 0 0 1 20 21h-6Zm5-2v-4h-4v4h4ZM4 21a.967.967 0 0 1-.712-.288A.968.968 0 0 1 3 20v-6a.97.97 0 0 1 .288-.713A.967.967 0 0 1 4 13h6c.283 0 .52.096.713.287.191.192.287.43.287.713v6a.97.97 0 0 1-.287.712A.968.968 0 0 1 10 21H4Zm5-2v-4H5v4h4Z"/>
</svg>
